X:1
T:Title
%%score 1 2
L:1/8
M:2/4
K:Ab
V:1 treble nm="Choir Aahs, ChrchOrg"
V:2 bass nm="Choir Aahs, ChrchOrg-2"
V:1
 E A2 A | c A2 A | EA EA | c A3 | [Ac] [GB]2 [Ac] | [A=d] [Ge]2 [GB] | [Ac][GB]- [GB]/[FA]/[EG] | %7
w: By~Albert~G.~Methfessel,~1840 * *|||||||
 [=DF] E3 | E [GB]2 [Ac]- | [Ac] [GB]3 | [GB][Ac]- [Ac]/[EB]/[CA] | [Ac] [GB]3 | EA EA | %13
w: ||||||
 [Ac] [Ae]2 [Ad] | [Bd] [Ac]2 [GB]- | [GB] A3 | E [GB]2 [Ac]- | [Ac] [GB]3 | %18
w: |||||
 [GB][Ac]- [Ac]/[EB]/[CA] | [Ac] [GB]3 | EA EA | [Ac] [Ae]2 [Ad] | [Bd] [Ac]2 [GB]- | [GB] A3 |] %24
w: ||||||
V:2
 E, A,2 A, | C A,2 A, | E,A, E,A, | C A,3 | [A,E] [E,E]2 [A,E] | [F,B,] [E,B,]2 [E,E] | %6
 [A,E][B,E]- [B,E]/[B,E]/[B,,B,] | [B,,A,] [E,G,]3 | [E,G,] [E,E]2 [A,E]- | [A,E] [E,E]3 | %10
 [E,B,][A,C]- [A,C]/[E,B,]/[C,A,] | [A,,C] [E,B,]3 | E,A, E,A, | [A,E] [A,C]2 [D,F] | %14
 [D,F] [E,E]2 [E,D]- | [E,D] [A,,C]3 | [E,G,] [E,E]2 [A,E]- | [A,E] [E,E]3 | %18
 [E,B,][A,C]- [A,C]/[E,B,]/[C,A,] | [A,,C] [E,B,]3 | E,A, E,A, | [A,E] [A,C]2 [D,F] | %22
 [D,F] [E,E]2 [E,D]- | [E,D] [A,,C]3 |] %24

